X: 4050
T: DOUGAL MORE
C: Carl Volti
R: Strathspey.
%R: strathspey
B: James Kerr "Merry Melodies" v.4 p.08 #50
Z: 2016 John Chambers <jc:trillian.mit.edu>
M: C
L: 1/8
K: D
|:\
F>G A<F B>c d<B | c>d e<c d3 f |\
g>ab>g a>fd>f |[1 g>fe>d (3cBA (3GFE :|[2 g<B c>A d3 f ||
|:\
a>b a<f d>e f<d | g>a b<g e3 f |\
a>b a<f d>e f<d |[1 B<e g>f e3 f :|[2 (3cBA (3gfe | d3 z |]

%%sep 1 1 500
%%sep 1 1 500

